!!!OTL: The Bear Went Over the Mountain
!!!COM: unknown
!!!ODT: 1850 (19th century)
!!!YOR: The Folksong Fake Book
!!!YOY: 2000
!!!AST: Children's song
!!!YEC: Brian Luke, 2001
**kern	**harm
*k[f#c#]	*k[f#c#]
*M6/8	*M6/8
*D:	*D:
*>A	*>A
4d	.
8e	.
=1	=1
4f#	I
8f#	.
8f#	.
8e	.
8f#	.
=2	=2
4.g	IV
4f#	I
8f#	.
=3	=3
4e	V7
8e	.
8e	.
8d	.
8e	.
=4	=4
4.f#	I
4d	.
8e	.
=5	=5
4f#	.
8f#	.
8f#	.
8e	.
8f#	.
=6	=6
4.g	IV
4b	.
8b	.
=7	=7
4a	Ic
8a	.
4g	V7
8e	.
=8	=8
4.d	I;
*>B	*>B
4r	.
8f#	.
=9	=9
4a	I
8a	.
4b	IV
8b	.
=10	=10
[4.a	I
4a]	.
8f#	.
=11	=11
4a	.
8a	.
4b	IV
8b	.
=12	=12
4.a	I
*>A	*>A
4d	.
8e	.
=13	=13
4f#	.
8f#	.
8f#	.
8e	.
8f#	.
=14	=14
4.g	IV
4f#	I
8f#	.
=15	=15
4e	V7
8e	.
8e	.
8d	.
8e	.
=16	=16
4.f#	I
4d	.
8e	.
=17	=17
4f#	.
8f#	.
8f#	.
8e	.
8f#	.
=18	=18
4.g	IV
4b	.
8b	.
=19	=19
4a	Ic
8a	.
4g	V7
8e	.
=20	=20
4.d	I;
*-	*-
